X:777
T:Richard Brennan's
T:Brennan's favourite
R:Jig
D:James Kelly: Capel Street
D:Mick Moloney: Strings attached
B:The Irish Fiddle Book
S:Xerox of sets(Cooking with turf (?))
Z:Transcription, chords:Mike Long
M:6/8
L:1/8
K:D
B,|\
"D"A,2F FED|FAF FEF|DFA dAF|"A"A,CE A,CE|\
"D"F3 FED|FAF FEF|DFA dAF|"A"DCE "D"D2:|
|:g|\
"D"fed "A"edc|"D"dcd "(A)"AFA|"D"fed "A"edc|"G"dfb "A"a2g|\
"D"fed "A"edc|"D"dcd "(A)"AFA|"D"DFA dAF|"A"DCE "D"D2:|
